X:445
T: James McMahon's
T: Port Sh\'eamais Mhic Mhath\'una
C: J.McMahon
S: B.Breathnach:"Ceol Rince na hEireann" IV/16
Z: B.Black
L: 1/8
M: 6/8
R: jig
K: D
d|fef edB|AdB AFE|BAF DEF|ABd edB|
fed edB|AdB AFE|BAF DFA|Bdd d2 :|
e|faa afa|baf efd|fef edB|ABd edB|
faa afa|baf efd|fef edB|ABd d2 :|
